X:0145
T:Wilkes's Wrigle.
T:The Deil's Awa wi th' Exciseman
M:6/8
L:1/8
Q:3/8=120
I: :: ::
Z:Jack Campin * www.campin.me.uk * 2009
K:A Mixolydian
A|A>Bc E2c |d2c B2A|A>Bc E2E|F3 A2:|
F|A2c  e2g |f2d c2B|A2c  e2c|d3 e2  
f|f2d  B>cd|e2c B2A|A>Bc E2E|F3 A2:|

